X:577
T:Reel 577
M:4/4
K:Emin
L:1/8
GA|BEEG FDEA| (3B^cd AF BEEF|GFGB A2d^c|dBAF E2:|GA|Bee^c d2dc|Beec dfed|Beed B^cdB|AFdF A2A2|Bee^d B^cdB|AD (3FED FAAc|Beed B^cdB|AFdF E2|
